X:123 
T:Mary Darby's*  
F:file ID: cre.5/123mary_d
B:CRE5.072 (gan ainm)
N:Relative of "Templeglantine". No repeats in CRE.
Q:180
M:12/8
R:slide
K:D
D2F A2A Bcd A2F|D2F A2F E3 E3|
D2F A2A Bcd A2G|F2D E2F D3 D3:|
f2e d2c Bcd A2e|f2d dcd e3 e3|
f2e d2c Bcd A2G|F2D EFE D3 D3:|

%%%

